src/assets/icons/horn.svg

<svg width="20" height="20" viewBox="0 0 20 20" fill="none" xmlns="http://www.w3.org/2000/svg">
<path d="M14.0677 3.62119C12.3417 4.31167 10.4931 4.761 8.5633 4.92751C8.00706 4.97551 7.44397 5.00002 6.875 5.00002H6.25C3.83375 5.00002 1.875 6.95877 1.875 9.37502C1.875 11.5414 3.44954 13.34 5.51664 13.6888C5.7952 14.8296 6.18171 15.9282 6.6647 16.9729C7.05142 17.8093 8.05984 18.0729 8.81691 17.6358L9.36384 17.32C10.0972 16.8966 10.3352 15.9928 10.0072 15.2633C9.81152 14.8279 9.63685 14.3812 9.48452 13.9242C11.0823 14.1392 12.6182 14.549 14.0677 15.1288C14.6724 13.321 15 11.3863 15 9.375C15 7.36373 14.6724 5.42898 14.0677 3.62119Z" fill="#A685FA"/>
<path d="M15.2172 3.11727C15.8867 5.08035 16.25 7.18525 16.25 9.375C16.25 11.5648 15.8867 13.6697 15.2172 15.6328C15.1712 15.7675 15.1239 15.9017 15.0751 16.0352C14.9564 16.3593 15.123 16.7183 15.4472 16.8369C15.7713 16.9556 16.1303 16.789 16.2489 16.4649C16.3656 16.1461 16.4747 15.8237 16.5758 15.4978C17.0122 14.0921 17.3023 12.6224 17.4283 11.1065C17.8591 10.6578 18.125 10.0472 18.125 9.37502C18.125 8.70281 17.8591 8.09227 17.4283 7.64356C17.3023 6.12766 17.0122 4.6579 16.5758 3.25228C16.4747 2.92638 16.3656 2.60393 16.2489 2.28518C16.1303 1.96103 15.7713 1.79445 15.4472 1.9131C15.123 2.03175 14.9564 2.39071 15.0751 2.71486C15.1239 2.84829 15.1712 2.98248 15.2172 3.11727Z" fill="#A685FA"/>
</svg>

<svg xmlns="http://www.w3.org/2000/svg" width="20" height="20" fill="#a685fa" xmlns:v="https://vecta.io/nano"><path d="M14.068 3.621a19.26 19.26 0 0 1-5.504 1.306L6.875 5H6.25C3.834 5 1.875 6.959 1.875 9.375a4.38 4.38 0 0 0 3.642 4.314 18.03 18.03 0 0 0 1.148 3.284c.387.836 1.395 1.1 2.152.663l.547-.316c.733-.423.971-1.327.643-2.057a14.29 14.29 0 0 1-.523-1.339 19.24 19.24 0 0 1 4.583 1.205c.605-1.808.932-3.742.932-5.754s-.328-3.946-.932-5.754zm1.149-.504a19.35 19.35 0 0 1 1.033 6.258 19.35 19.35 0 0 1-1.033 6.258l-.142.402c-.119.324.048.683.372.802s.683-.048.802-.372l.327-.967a20.54 20.54 0 0 0 .852-4.391c.431-.449.697-1.059.697-1.731a2.49 2.49 0 0 0-.697-1.731 20.55 20.55 0 0 0-.852-4.391l-.327-.967c-.119-.324-.478-.491-.802-.372s-.491.478-.372.802l.142.402z"/></svg>
